svg/fluentui-system-icons/ic_fluent_panel_left_header_add_20_filled.svg

<svg width="20" height="20" viewBox="0 0 20 20" fill="none" xmlns="http://www.w3.org/2000/svg">
<path d="M2 6C2 4.34314 3.34375 3 5 3H15C16.6562 3 18 4.34314 18 6V10.2572C17.6929 10.0035 17.3578 9.78261 17 9.59971V8H8.5V15H9.02242C9.05337 15.3434 9.11588 15.6777 9.20703 16H5C3.34375 16 2 14.6569 2 13V6ZM17 6C17 4.89539 16.1055 4 15 4H8.5V7H17V6ZM19 14.5C19 16.9853 16.9853 19 14.5 19C12.0147 19 10 16.9853 10 14.5C10 12.0147 12.0147 10 14.5 10C16.9853 10 19 12.0147 19 14.5ZM15 12.5C15 12.2239 14.7761 12 14.5 12C14.2239 12 14 12.2239 14 12.5V14H12.5C12.2239 14 12 14.2239 12 14.5C12 14.7761 12.2239 15 12.5 15H14V16.5C14 16.7761 14.2239 17 14.5 17C14.7761 17 15 16.7761 15 16.5V15H16.5C16.7761 15 17 14.7761 17 14.5C17 14.2239 16.7761 14 16.5 14H15V12.5Z" fill="#212121"/>
</svg>

<svg xmlns="http://www.w3.org/2000/svg" width="20" height="20"><path d="M2 6a3 3 0 0 1 3-3h10a3 3 0 0 1 3 3v4.257a5.503 5.503 0 0 0-1-.657V8H8.5v7h.522a5.5 5.5 0 0 0 .185 1H5a3 3 0 0 1-3-3V6Zm15 0a2 2 0 0 0-2-2H8.5v3H17V6Zm2 8.5a4.5 4.5 0 1 1-9 0 4.5 4.5 0 0 1 9 0Zm-4-2a.5.5 0 0 0-1 0V14h-1.5a.5.5 0 0 0 0 1H14v1.5a.5.5 0 0 0 1 0V15h1.5a.5.5 0 0 0 0-1H15v-1.5Z"/></svg>
